Adwaita++/actions/symbolic/view-top-pane-symbolic.svg

<svg height="16" viewBox="0 0 16 16" width="16" xmlns="http://www.w3.org/2000/svg">
  <path d="m1 15v-2-10-2h2 10 2v2 10 2h-2-10zm2-8h1.0039062 7.9999998.996094v-.9804688c.000139-.0068905.003906-.0126062.003906-.0195312v-2c0-.00692-.0038-.012641-.0039-.019531v-.980469h-.9961-7.9999998-1.0039062z" fill="#474747"/>
</svg>

<svg xmlns="http://www.w3.org/2000/svg" width="16" height="16" version="1.1" viewBox="0 0 16 16">
 <path style="fill:#474747" d="M 1,15 V 13 3 1 h 2 10 2 v 2 10 2 H 13 3 Z M 3,7 H 4.0039062 12.003906 13 V 6.0195312 C 13.000139,6.0126407 13.003906,6.006925 13.003906,6 V 4 c 0,-0.00692 -0.0038,-0.012641 -0.0039,-0.019531 V 3 H 12.003906 4.0039062 3 Z"/>
</svg>
